favicon.svg

<?xml version="1.0" encoding="UTF-8" standalone="no"?>
<!DOCTYPE svg PUBLIC "-//W3C//DTD SVG 1.1//EN" "http://www.w3.org/Graphics/SVG/1.1/DTD/svg11.dtd">
<svg width="100%" height="100%" viewBox="0 0 24 24" version="1.1" xmlns="http://www.w3.org/2000/svg" xmlns:xlink="http://www.w3.org/1999/xlink" xml:space="preserve" xmlns:serif="http://www.serif.com/" style="fill-rule:evenodd;clip-rule:evenodd;stroke-linejoin:round;stroke-miterlimit:2;">
    <path d="M21,8C20.999,7.287 20.617,6.626 20,6.27L13,2.27C12.382,1.913 11.618,1.913 11,2.27L4,6.27C3.383,6.626 3.001,7.287 3,8L3,16C3.001,16.713 3.383,17.374 4,17.73L11,21.73C11.618,22.087 12.382,22.087 13,21.73L20,17.73C20.617,17.374 20.999,16.713 21,16L21,8Z" style="fill:rgb(37,99,235);fill-rule:nonzero;"/>
    <g transform="matrix(0.549035,0,0,0.549035,5.411584,5.411584)">
        <path d="M21,8C20.999,7.287 20.617,6.626 20,6.27L13,2.27C12.382,1.913 11.618,1.913 11,2.27L4,6.27C3.383,6.626 3.001,7.287 3,8L3,16C3.001,16.713 3.383,17.374 4,17.73L11,21.73C11.618,22.087 12.382,22.087 13,21.73L20,17.73C20.617,17.374 20.999,16.713 21,16L21,8Z" style="fill:white;fill-rule:nonzero;"/>
    </g>
</svg>

<svg xmlns="http://www.w3.org/2000/svg" width="24" height="24" viewBox="0 0 24 24" fill="#2563eb" stroke-linecap="round" stroke-linejoin="round" class="lucide lucide-box-icon lucide-box">
    <path d="M21 8a2 2 0 0 0-1-1.73l-7-4a2 2 0 0 0-2 0l-7 4A2 2 0 0 0 3 8v8a2 2 0 0 0 1 1.73l7 4a2 2 0 0 0 2 0l7-4A2 2 0 0 0 21 16Z"/>
    <path d="m3.3 7 8.7 5 8.7-5"/>
    <path d="M12 22V12"/>
</svg>
